X:1
T:Yet stay alway - Bateson
T:James Gibb editions
T:#
%%score 1 2 3 4
L:1/8
M:4/4
K:Bb
V:1 treble nm="Soprano I"
V:2 treble nm="Soprano II"
V:3 treble-8 nm="Alto" snm="A"
V:4 treble-8 nm="Tenor" snm="T"
V:1
"^Yet stay alway""^Thomas Bateson\n (1575-1630)" z2!mf! G2 B2 c2 | d4 z2 d2 | c3 d (c2 B2 | %3
w: Yet stay al-|way, Yet|stay al- way, *|
 A2 B2) A4 |[M:4/4] G4 z4 | g8 | f8 | e8 | d4!f! d4- | d4 c4- | c4 (B2 c2) | d4 z2!p! (d=e) | %12
w: * * al-|way,|yet|stay|al-|way, yet|* stay|* al\- *|way, be *|
 f2 d2 c2 d2 | B2 c2 d4 | z2 d4 g2 | ^f2!f! d2 c2 B2 | A3 B c2 d2 | e3 e d4 | z2 g2 f2 e2 | %19
w: chain- ed to my|heart, my heart,|to my|heart With links of|love, that we may|ne- ver part,|with links of|
 d2 B2 e4 | d8 | d6 d2 | d4 z2!p! G2 | d3 =e f3 d | =e2 c2 d4 | c2 f2 =e4 | z4 A4 | G4 F2 G2 | A8 | %29
w: love, that we|may|ne- ver|part; Then|I'll not call thee|ser- pent, ti-|ger cru- el,|O|ti- ger cru-|el,|
 z4!f! f4- | f4 _e4- | e4 d4 | c8 | d4 z2!p! d2 | f3 e d3 c | B3 A G2 F2 | (=E2 F4 E2) | %37
w: O|* ti\-|* ger|cru-|el, But|my sweet Gem- ma,|and my dear- est|jew\- * *|
[Q:1/4=120][Q:1/4=120][Q:1/4=120][Q:1/4=120] F8 | z4 z2 d2 | f3 =e d3 c | =B3 c d3 _e | d2 c4 =B2 | %42
w: el,|but|my sweet Gem- ma,|and my dear- est|jew- el, my|
 c2 G2 A2 A2 | z4 z2!f! d2 | f3 =e d3 c | BB A3 G (FG) | %46
w: dear- est jew- el,|but|my sweet Gem- ma,|and my dear- est jew\- *|
 A2[Q:1/4=119] B2[Q:1/4=117] A2[Q:1/4=115] G2 |[Q:1/4=113] (^F2[Q:1/4=111] G4[Q:1/4=108] F2) | %48
w: el, my dear- est|jew\- * *|
[Q:1/4=108] G16 |] %49
w: el.|
V:2
 z8 | z8 | z8 |!mf! d8 |[M:4/4] c8 | B8 | A6 B2 | c4 c4 | F4!f! B4 | A2 (B2 c2 d2 | e2 f2 g4) | %11
w: |||Yet|stay,|al-|way, yet|stay al-|way, yet|stay al\- * *||
 ^f4 z4 | z8 | z2!p! (GA) B2 A2- | A2 B4 c2 | d3!f! A A2 G2 | F3 G A2 B2 | B2 A2 B4 | z8 | %19
w: way,||be * chain- ed|* to my|heart With links of|love, that we may|ne- ver part,||
 z2 d2 c2 B2 | A2 G2 ^F2 G2 | (A2 B2) A4 | G2!p! D2 G3 A | B2 G2 A2 F2 | G2 (=EA) (F3 G) | %25
w: with links of|love that we may|ne\- * ver|part; Then I'll not|call thee ser- pent,|ti- ger * cru\- *|
 A4 z2 A2 | d3 =e f3 f | =e2 c2 d2 e2 | f4 =e4 | z4!f! d4- | d4 c4- | c2 B2 (B4- | B4 A4) | B8 | %34
w: el, then|I'll not call thee|ser- pent, ti- ger|cru- el,|O|* ti\-|* ger cru\-||el,|
 z2!p! A2 B3 A | G2 F2 =E2 F2 | G2 A2 G4 | A4 z2 c2 | f3 =e d3 c | B2 (AG) (^F=E) F2 | %40
w: But my sweet|Gem- ma, and my|dear- est jew-|el, but|my sweet Gem- ma,|and my * dear\- * est|
 G2 GA =B3 c | (d2 e2 d4) | c4 z2!f! c2 | f3 =e d3 c | B2 A2 D3 =E | (F3 =E) D4 | D3 =E ^F2 G2 | %47
w: jew- el, my dear- est|jew\- * *|el, but|my sweet Gem- ma,|and my dear- est|jew\- * el,|and my dear- est|
 (A2 B2 A4) | =B16 |] %49
w: jew\- * *|el.|
V:3
 z8 | z2!mf! d2 f2 g2 | a3 b a2 g2 | (^f2 g4) f2 |[M:4/4][K:treble-8] g2 g2 =f2 e2 | d6 e2 | %6
w: |Yet stay, yet|stay al- way, yet|stay * al-|way, yet stay al-|way, yet|
 f6 d2 | (e2 d2) c4 | d6!f! d2 | (f2 g2 a4 | g4) G4 | d8 | z2!p! (fg) a2 f2 | g2 e2 d4 | z2 f4 g2 | %15
w: stay, yet|stay * al-|way, yet|stay * *|* al-|way,|be * chain- ed|to my heart,|to my|
 a2!f! f2 f2 d2 | d2 d2 c2 B2 | c2 c2 B2 d2 | d3 c d4- | d4 z2 g2 | f2 =e2 d2 d2 | d2 d2 d3 c | %22
w: heart With links of|love, that we may|ne- ver part, with|links of love,|* with|links of love that|we may ne- ver|
 =B8 | z8 | z2!p! A2 d3 =e | f3 d =e2 c2 | d8 | =e4 (d4- | d4 ^c4) | d4!f! a4 | g8 | f8 | (f6 e2) | %33
w: part;||Then I'll not|call thee ser- pent,|ti-|ger cru\-||el, O|ti-|ger|cru\- *|
 d2!p! d2 f3 e | d3 c B2 B2 | B2 B2 c4 | c4 z4 | z2 c2 f3 =e | d3 c B2 (AG) | F3 G A4 | G8 | %41
w: el, But my sweet|Gem- ma, and my|dear- est jew-|el,|but my sweet|Gem- ma, and my *|dear- est jew-|el,|
 G4 g3 f | (=ed e2 f2) c2 | z2!f! d2 f3 =e | d3 c B2 (AG) | F2 D2 (F3 =E) | D2 d4 d2 | d2 d2 d4 | %48
w: but my sweet|Gem\- * * * ma,|but my sweet|Gem- ma, and my *|dear- est jew\- *|el, and my|dear- est jew-|
 d16 |] %49
w: el.|
V:4
!mf! G8 | B8 | c8 | d8 |[M:4/4][K:treble-8] z8 | z4 d4- | d4 c2 (B2- | B2 AG A4) | B6!f! G2 | %9
w: Yet|stay|al-|way,||yet|* stay al\-||way, yet|
 (A6 B2 | c2 BA B2) (AG) | A8 | z2!p! (d=e) f2 d2 | _e2 c2 B2 (FG) | A2 F2 B2 (AG) | %15
w: stay *|* * * * al\- *|way,|be * chain- ed|to my heart, be *|chain- ed to my *|
 d2!f! A2 A2 (BG) | A4 z4 | z4 z2 B2 | A2 G2 A2 A2 | B2 B2 A2 G2 | d2 G2 A2 B2 | (A2 G4) ^F2 | G8 | %23
w: heart With links of *|love,|with|links of love, of|love, with links of|love that we may|ne\- * ver|part;|
 z4 z2!p! D2 | G2 A2 B2 B2 | A2 F2 B2 A2 | G4 D4 | z8 | z8 | z4!f! F4 | G6 G2 | (A4 B4 | c4 F4) | %33
w: Then|I'll not call thee|ser- pent, ti- ger|cru- el,|||O|ti- ger|cru\- *||
 F8 | z8 | z8 | z2!p! F2 c3 B | (A3 G) F4 | z2 d2 f3 =e | d4 d4 | d2 d2 d3 c | (=B2 c2) G2 G2 | %42
w: el,|||But my sweet|Gem\- * ma,|but my sweet|Gem- ma,|and my dear- est|jew\- * el, but|
 c3 _B A3 G | A B2 A B4 | z2!f! d2 f3 =e | d3 c B2 (AG) | (^F2 G2 A2 B2 | A2) G2 A4 | G16 |] %49
w: my sweet Gem- ma,|my sweet Gem- ma,|but my sweet|Gem- ma, and my *|dear\- * * *|* est jew-|el.|

